X: 36990
T: Sí Beag Sí Mór
R: waltz
M: 3/4
K: Dmajor
de|:fg fe d2|d3e d2|B4A2|F4A2|BA Bc d2|e4 de|
f4e2|d4f2|B4e2|A4d2|F4E2|D4f2|B4e2|
A4dc|d6-|1 d4de:|2 d4de||
|:f3ed2|ed ef a2|b4a2|f3ed2|
e4a2|f3ed2|d4B2|A4BA|
F4E2|D4f2|B4e2A4a2|
ba gf ed|e4dc|d6-|1 d4de:|d4||

